X:18
T:Dingle Regatta (slide), The 
F:file ID fs.2/018dingle
Z:bill@capeirish.com
B:FS2.33c
M:12/8
L:1/8
Q:180
R:slide
K:G
dBd e2d BAB d2B|A2A AGA B2A G2B|
"5"dBd e2d BAB d2B|AGA B2A G3 G3 :|
"9"d2d def g3 gfg|a2a aga b2a gfe|
"13"d2d def g3 gfg|a2g f2e def g3 :|
"17"gbg ded BdB G3|FGA DEF G2B d3|
"21"gbg ded BdB G3|FGA DEF G3 HG3 :|

